!!!COM: Palestrina, Giovanni Perluigi da
!!!OPR: Missa Virtute magna
!!!OMD: Credo
!!!OTL: Et iterum
**kern	**kern	**kern	**kern
*Ibass	*Itenor	*Icalto	*Icant
!Bassus	!Tenor	!Altus	!Cantus
*clefF4	*clefGv2	*clefG2	*clefG2
*k[]	*k[]	*k[]	*k[]
*G:mix	*G:mix	*G:mix	*G:mix
*M4/2	*M4/2	*M4/2	*M4/2
=154	=154	=154	=154
0r	0r	0r	1g
.	.	.	2.dd
.	.	.	4dd
=155	=155	=155	=155
0r	0r	1r	2dd
.	.	.	2dd
.	.	1c	2cc
.	.	.	2cc
=156	=156	=156	=156
0r	0r	2.g	2b
.	.	.	1dd
.	.	4g	.
.	.	2g	.
.	.	2g	4cc
.	.	.	4b
=157	=157	=157	=157
0r	0r	2f	4a
.	.	.	4g
.	.	2f	4a
.	.	.	4b
.	.	2e	2cc
.	.	[2g	[2b
=158	=158	=158	=158
0r	1r	2g]	2b]
.	.	4f	4a
.	.	4e	4g
.	1G	2d	1b
.	.	[2g	.
=159	=159	=159	=159
0r	2.d	2g]	0a
.	.	4f	.
.	4d	4e	.
.	2d	2.f	.
.	2d	.	.
.	.	8e	.
.	.	8d	.
=160	=160	=160	=160
1C	2c	1e	0r
.	2c	.	.
2.G	2B	2.d	.
.	[2d	.	.
4G	.	4c	.
=161	=161	=161	=161
2G	2d]	2B	0r
2G	4c	1e	.
.	4B	.	.
2F	4A	.	.
.	4G	.	.
2F	4A	2d	.
.	4B	.	.
=162	=162	=162	=162
2E	2c	1e	1g
1G	4B	.	.
.	4A	.	.
.	2G	1r	2b
4F	[2c	.	2cc
4E	.	.	.
=163	=163	=163	=163
4D	2c]	1r	1dd
4C	.	.	.
2D	2B	.	.
1C	2.c	2r	[1ee
.	.	2c	.
.	4B	.	.
=164	=164	=164	=164
0r	1A	2e	2ee]
.	.	2f	4dd
.	.	.	4cc
.	1G	1g	2b
.	.	.	2dd
=165	=165	=165	=165
0r	0r	1.a	4cc
.	.	.	4b
.	.	.	4cc
.	.	.	4dd
.	.	.	4ee
.	.	.	4ff#
.	.	4g	[2gg
.	.	4f	.
=166	=166	=166	=166
1c	0r	2e	4gg]
.	.	.	4ff
.	.	2g	1ee
2A	.	1f	.
2B	.	.	2dd
=167	=167	=167	=167
2.c	2r	1e	1ee
.	2g	.	.
4B	.	.	.
2c	2e	1r	1r
2d	2f#	.	.
=168	=168	=168	=168
2B	2.g	0r	1r
2.c	.	.	.
.	4f	.	.
.	4e	.	1cc
4B	4d	.	.
4A	2e	.	.
4G	.	.	.
=169	=169	=169	=169
2F	2f	2r	2a
2G	1e	2g	2b
1A	.	2e	[1cc
.	4d	2f#	.
.	4c	.	.
=170	=170	=170	=170
1G	1d	1.g	2cc]
.	.	.	4b
.	.	.	4a
[1D	2r	.	2b
.	[2d	4f	2a
.	.	4e	.
=171	=171	=171	=171
1D]	2d]	2.f	[0a
.	2d	.	.
.	.	4e	.
1r	1f	2d	.
.	.	2d	.
=172	=172	=172	=172
1.A	1.e	1c	1a]
.	.	1r	1r
2A	2c	.	.
=173	=173	=173	=173
1c	2e	0r	1r
.	2e	.	.
2B	4d	.	2r
.	4c	.	.
2G	4B	.	[2g
.	4A	.	.
=174	=174	=174	=174
2B	2G	0r	2g]
2c	1g	.	2g
1A	.	.	2a
.	2f#	.	2a
=175	=175	=175	=175
0G	1g	2r	2b
.	.	1d	2.dd
.	1r	.	.
.	.	.	4cc
.	.	2d	4b
.	.	.	4a
=176	=176	=176	=176
0r	1r	1e	2g
.	.	.	2b
.	2r	1f#	2a
.	2d	.	2a
=177	=177	=177	=177
2r	2e	1g	1g
1G	2.g	.	.
.	.	1r	1r
.	4f	.	.
2G	4e	.	.
.	4d	.	.
=178	=178	=178	=178
2A	2c	1r	0r
2A	2e	.	.
1B	1d	2r	.
.	.	2d	.
=179	=179	=179	=179
0c	1c	2e	1r
.	.	2.g	.
.	1r	.	[1g
.	.	4f	.
.	.	4e	.
.	.	4d	.
=180	=180	=180	=180
0r	2r	2c	2g]
.	1g	2e	2g
.	.	1d	1a
.	2f#	.	.
=181	=181	=181	=181
2r	1g	1G	1b
2G	.	.	.
2A	2f	2r	[1cc
[2c	[2e	2c	.
=182	=182	=182	=182
4c]	4e]	2e	2cc]
4B	4d	.	.
4A	4c	1f	2cc
4G	4B	.	.
2F	2A	.	1cc
[2A	[2c	4e	.
.	.	4d	.
=183	=183	=183	=183
2A]	2c]	2c	2a
4G	4B	2d	2b
4F	4A	.	.
2E	2G	2e	1cc
2F	[2c	2c	.
=184	=184	=184	=184
1D	2c]	1f	1dd
.	2B	.	.
1C	[1c	1e	[1g
=185	=185	=185	=185
2r	1c]	2r	1g]
1c	.	1e	.
.	1r	.	1r
2B	.	2d	.
=186	=186	=186	=186
1c	1r	1e	2r
.	.	.	1g
2B	2r	1d	.
2G	[2g	.	2g
=187	=187	=187	=187
2A	2g]	1c	1cc
2A	2f#	.	.
1G	1g	[1d	1b
=188	=188	=188	=188
2r	2f	2d]	0a
1d	2d	2d	.
.	2e	1A	.
2c	2e	.	.
=189	=189	=189	=189
2B	2d	0r	0r
2c	1g	.	.
1A	.	.	.
.	2f	.	.
=190	=190	=190	=190
2G	2e	0r	0r
2A	2f	.	.
2B	1d	.	.
2G	.	.	.
=191	=191	=191	=191
2A	2c	0r	0r
2B	2d	.	.
1c	2e	.	.
.	2c	.	.
=192	=192	=192	=192
2B	2d	0r	0r
1A	2e	.	.
.	2f	.	.
4G	[2e	.	.
4F	.	.	.
=193	=193	=193	=193
2.G	4e]	1r	0r
.	4d	.	.
.	1d	.	.
4F	.	.	.
1E	.	2r	.
.	2c#	[2g	.
=194	=194	=194	=194
1D	1d	2g]	1r
.	.	2f	.
1r	1G	2b-	2r
.	.	2b-	[2dd
=195	=195	=195	=195
0r	1r	1a	2dd]
.	.	.	2cc
.	2r	4d	2ff
.	.	4e	.
.	[2d	4f	2ff
.	.	4g	.
=196	=196	=196	=196
0r	2d]	4a	1ee
.	.	4b	.
.	2c	2.cc	.
.	2f	.	4a
.	.	4b	4b
.	2f	2a	4cc
.	.	.	4dd
=197	=197	=197	=197
0r	2e	2g	2ee
.	1d	2.a	1ff
.	.	4g	.
.	2c#	2e	[2ee
=198	=198	=198	=198
1r	1d	1f	2ee]
.	.	.	2dd
2r	2A	1e	1ee
2A	2A	.	.
=199	=199	=199	=199
2A	2c	0r	0r
2B	2d	.	.
1c	1e	.	.
=200	=200	=200	=200
2A	2c	1r	2r
2d	2f	.	2a
2c	2e	2r	2a
2B	2d	2d	2b
=201	=201	=201	=201
1A	4c	2e	2.cc
.	4d	.	.
.	4e	2e	.
.	4c	.	4b
1r	1d	2.f	2a
.	.	.	2dd
.	.	4f	.
=202	=202	=202	=202
1r	1r	2e	2cc
.	.	2g	2b-
1D	2r	2.f	[1a
.	2d	.	.
.	.	8e	.
.	.	8d	.
=203	=203	=203	=203
2A	2d	2e	1a]
2A	2c#	2e	.
2F	2d	1d	1r
2G	2B	.	.
=204	=204	=204	=204
2A	2c	0r	1r
2B	2d	.	.
1c	1e	.	2r
.	.	.	[2cc
=205	=205	=205	=205
1G	1d	2r	2cc]
.	.	1g	2b
1r	1r	.	2g
.	.	2f	2a
=206	=206	=206	=206
1r	2r	2d	1b
.	1g	2e	.
2r	.	2c	1a
[2d	2f	2d	.
=207	=207	=207	=207
2d]	2d	2f	0a
2c#	2e	2.e	.
1d	1f	.	.
.	.	4d	.
.	.	[2d	.
=208	=208	=208	=208
1A	1e	2d]	0a
.	.	2c	.
1r	2d	2f	.
.	2c	2e	.
=209	=209	=209	=209
0r	1B-	1d	1g
.	1A	1e	1a
=210	=210	=210	=210
0F	0f	0a	1r
.	.	.	[1cc
=211	=211	=211	=211
1C	1e	1g	2cc]
.	.	.	2cc
1G	1d	1g	1b
=212	=212	=212	=212
1A	1c	1e	0a
2.D	2r	1r	.
.	[2A	.	.
4E	.	.	.
=213	=213	=213	=213
2F	2A]	2.d	0r
2G	2B	.	.
.	.	4e	.
2A	2c	2f	.
2G	2d	2g	.
=214	=214	=214	=214
2c	2e	2a	1r
2B	2d	2g	.
[1A	[1e	2.cc	2.a
.	.	4b	4b
=215	=215	=215	=215
2A]	2e]	2a	2cc
2B	2d	4g	2dd
.	.	4f	.
2c	2g	2e	2ee
[2d	[2f	4a	2dd
.	.	4g	.
=216	=216	=216	=216
4d]	4f]	4a	1ff
4c	4g	4b	.
4A	2a	2.cc	.
4B	.	.	.
2c	2g	.	2ee
.	.	4b	.
2d	2f	4a	[2dd
.	.	4g	.
=217	=217	=217	=217
1A	0e	0a	2dd]
.	.	.	4cc
.	.	.	4b
1A	.	.	1cc#
=218	=218	=218	=218
1B-	1d	1f	0dd
1G	2r	1b-	.
.	[2g	.	.
=219	=219	=219	=219
2D	2g]	0a	0r
2d	2f	.	.
2c	2e	.	.
2B-	2d	.	.
=220	=220	=220	=220
1A	2f	0r	0r
.	2.e	.	.
2F	.	.	.
.	4d	.	.
2G	[2d	.	.
=221	=221	=221	=221
2E	2d]	2r	1r
2E	2c#	1g	.
1D	1d	.	2r
.	.	2f	2dd
=222	=222	=222	=222
0r	2r	2e	2cc
.	1d	2d	2b-
.	.	2f	1a
.	2c#	[2e	.
=223	=223	=223	=223
0r	2d	4e]	2f
.	.	4d	.
.	2G	1d	2g
.	1A	.	2e
.	.	2c#	2e
=224	=224	=224	=224
2r	1d	2d	1d
2.d	.	1f	.
.	1r	.	2r
4c	.	.	.
2B	.	2g	2dd
=225	=225	=225	=225
2A	1r	2a	2cc
2G	.	4d	2b
.	.	4e	.
1d	2r	4f	2a
.	.	4g	.
.	2d	4a	2ff
.	.	4f	.
=226	=226	=226	=226
1r	2c	1g	2ee
.	2B	.	1dd
2r	1A	2f	.
2A	.	[2e	2cc
=227	=227	=227	=227
2G	1d	4e]	2b
.	.	4d	.
2F	.	1d	2a
1E	2G	.	2.g
.	[2g	2c#	.
.	.	.	4a
=228	=228	=228	=228
1D	2g]	1d	2b
.	2f	.	2a
1C	1e	2r	1cc
.	.	[2g	.
=229	=229	=229	=229
1D	2.d	2g]	2b
.	.	2f	2.a
.	4c	.	.
2E	2B	1e	.
.	.	.	4g
2C	2c	.	[2g
=230	=230	=230	=230
0D	0A	[0d	2g]
.	.	.	4f
.	.	.	4e
.	.	.	1f#
=231	=231	=231	=231
0G	1G	1d]	2g
.	.	.	2.dd
.	1r	2.g	.
.	.	.	8cc
.	.	.	8dd
.	.	.	2ee
.	.	8f	.
.	.	8g	.
=232	=232	=232	=232
1r	2r	2a	2cc
.	2.d	2f	2dd
2.G	.	1g	2.b
.	8c	.	.
.	8d	.	.
.	2e	.	.
8F	.	.	8a
8G	.	.	8b
=233	=233	=233	=233
2A	2c	0r	2cc
2F	2.d	.	2a
2G	.	.	[1b
.	4c	.	.
[2d	4B	.	.
.	4A	.	.
=234	=234	=234	=234
4d]	1G	2.g	1b]
8c	.	.	.
8d	.	.	.
2e	.	.	.
.	.	8f	.
.	.	8g	.
2c	1r	2a	2r
2d	.	2f	[2dd
=235	=235	=235	=235
2B	2.g	2g	4dd]
.	.	.	8cc
.	.	.	8dd
2c	.	1e	2ee
.	8f	.	.
.	8g	.	.
2A	2a	.	2cc
2D	2f	[2d	2dd
=236	=236	=236	=236
2.G	2g	4d]	2.b
.	.	8c	.
.	.	8d	.
.	2.e	2e	.
8F	.	.	8a
8G	.	.	8b
2A	.	2c	2cc
.	8d	.	.
.	8e	.	.
2F	2f	2d	2a
=237	=237	=237	=237
2G	2d	2.B	2b
2.E	2e	.	2.g
.	.	8A	.
.	.	8B	.
.	2.c	2c	.
8D	.	.	8f
8E	.	.	8g
2F	.	[2A	2a
.	8B	.	.
.	8c	.	.
=238	=238	=238	=238
2D	2d	2A]	2f
2E	2B	2.e	2g
1C	1c	.	2e
.	.	8d	.
.	.	8c	.
.	.	2e	[2g
=239	=239	=239	=239
[0D	2B	[0d	2g]
.	4A	.	4f
.	4G	.	4e
.	[1A	.	[1f#
=240	=240	=240	=240
1D]	1A]	1d]	1f#]
1r	1r	1r	1r
=241	=241	=241	=241
0C	0c	0e	0g
=242	=242	=242	=242
[0G	[0B	[0d	[0g
=243	=243	=243	=243
0G]	0B]	0d]	0g]
==	==	==	==
*-	*-	*-	*-
!!!CDT: 1525/^1526/-1594/2/2
!!!OCY: Italia
!!!AGN: Mass (Parody)
!!!AST: renaissance, vocal
!!!ASW: Motet 1532 (Lasson)
!!!PWK: Masses, Book I
!!!RNB: Cadence finals: D
!!!YOR: Le Opere Complete, v. 1, p. 62
!!!YOO: Rome, Italy: Fratelli Scalera
!!!END: 1992//
!!!EED: John Miller
!!!YEC: Copyright 2000, John Miller
!!!YEN: United States of America
!!!YEM: Rights to all derivative electronic formats reserved.
!!!YEM: Refer to licensing agreement for further details.
!!!YEM: This file must be accompanied by the licensing agreement.
!!!YEM: A copy of the licensing agreement may be found at http://www.music-cog.ohio-state.edu/HumdrumDatabases/Palestrina/license.txt
!!!EMD: converted to Humdrum by Bret Aarden
